src/devices/scalable/gnome-dev-media-sm.svg

<svg xmlns="http://www.w3.org/2000/svg" width="64" height="64" viewBox="0 0 16.933 16.933"><defs><linearGradient id="d" x1="-182.7" x2="-184.42" y1="208.08" y2="285.53" gradientTransform="matrix(.33353 0 0 .14195 91.099 249.62)" gradientUnits="userSpaceOnUse"><stop offset="0" stop-color="#fff"/><stop offset="1" stop-color="#c3c3c3"/></linearGradient><linearGradient id="b" x1="-32.568" x2="-33.595" y1="-263.25" y2="-90.552" gradientTransform="translate(36.555 308.13)scale(.19258)" gradientUnits="userSpaceOnUse"><stop offset="0" stop-color="#545454"/><stop offset="1" stop-color="#2a2a2a"/></linearGradient><linearGradient id="c" x1="-256.93" x2="-256.24" y1="-66.48" y2="1.3" gradientTransform="translate(78.792 273.91)scale(.19258)" gradientUnits="userSpaceOnUse"><stop offset="0" stop-color="#fcd287"/><stop offset="1" stop-color="#af8a4f"/></linearGradient><radialGradient id="e" cx="-179.96" cy="216.52" r="30.5" gradientTransform="matrix(.33353 0 0 .08877 91.102 262.59)" gradientUnits="userSpaceOnUse"><stop offset="0" stop-color="#578fe0"/><stop offset="1" stop-color="#5082cd"/></radialGradient><filter id="a" width="1.082" height="1.064" x="-.041" y="-.032" color-interpolation-filters="sRGB"><feGaussianBlur stdDeviation=".447"/></filter></defs><g stroke-width="2.1"><g transform="translate(-6.101 -120.21)scale(.46875)"><path d="M19.501 258.11c-.862 0-1.556.694-1.556 1.556v30.226c0 .862.694 1.556 1.556 1.556h23.154c.862 0 1.556-.694 1.556-1.556v-28.104l-3.484-3.678z" filter="url(#a)" opacity=".25"/><path fill="url(#b)" d="M19.501 257.58c-.862 0-1.556.694-1.556 1.556v30.226c0 .862.694 1.556 1.556 1.556h23.154c.862 0 1.556-.694 1.556-1.556v-28.104l-3.484-3.678z"/><rect width="21.124" height="12.947" x="20.516" y="261.66" fill="gray" opacity=".3" ry="2.034"/><rect width="21.124" height="12.947" x="20.516" y="261.25" fill="url(#c)" stroke="#333" stroke-linecap="round" stroke-linejoin="round" stroke-width=".607" ry="2.034"/></g><g fill="none" stroke="#000" stroke-linecap="round" stroke-linejoin="round" stroke-width=".19" opacity=".6"><path d="M3.666 6.028a4.19 4.19 0 0 1 3.48-.545c.272.08.534.187.794.296.9.377 1.81.785 2.782.864a4.3 4.3 0 0 0 1.854-.26"/><path d="M3.65 5.291a4.4 4.4 0 0 1 2.988-.611c.558.087 1.093.282 1.618.493.812.326 1.627.696 2.5.769a3.83 3.83 0 0 0 2.527-.699"/><path d="M4.425 4.177a3.5 3.5 0 0 1 1.687-.335c.713.037 1.397.29 2.054.569.695.296 1.387.628 2.133.753a4 4 0 0 0 2.183-.248m-8.07-2.544v1.775m.928-1.775v1.507m.913-1.507V3.85m.887-1.478V4.03m.89-1.658v1.973m.897-1.973v2.361m.857-2.361v2.68m.928-2.68v2.83m.885-2.83v2.786m.885-2.786v2.544m-8.026.693V7.42m.893-2.058v2.845m.914-2.877v2.877M7.12 5.47v2.737m.896-2.391v2.391m.888-2.023v2.023m.918-1.717v1.717m.889-1.557v1.557m.899-1.581v1.581m.967-1.823v1.823"/></g><g fill-rule="evenodd" transform="translate(-6.101 -120.21)scale(.46875)"><rect width="21.42" height="12.209" x="20.368" y="278.57" fill="#1a1a1a" ry=".496"/><rect width="20.345" height="11.356" x="20.905" y="279.13" fill="url(#d)" ry=".462"/><path fill="url(#e)" d="M21.411 279.13c-.6 0-.503.43-.503.991v4.401h20.345v-4.4c0-.562.037-.992-.564-.992z"/><path fill="#fff" d="m30.707 280.81.811 1.995-1.666-.001z"/></g></g></svg>

<svg width="64" height="64" viewBox="0 0 16.933 16.933" xmlns="http://www.w3.org/2000/svg"><defs><linearGradient id="b" x1="1456.9" x2="1460.4" y1="-810.5" y2="-811.9" gradientTransform="matrix(-2.732 0 0 2.732 4027.2 2244.5)" gradientUnits="userSpaceOnUse"><stop stop-color="#E7DDAF" offset="0"/><stop stop-color="#E7DDAF" stop-opacity="0" offset="1"/></linearGradient><linearGradient id="c" x1="1456.3" x2="1460" y1="-807.81" y2="-808.72" gradientTransform="matrix(-2.731 -.07716 -.07716 2.731 3970.8 2345.5)" gradientUnits="userSpaceOnUse"><stop stop-color="#EAC7AE" offset="0"/><stop stop-color="#EAC7AE" stop-opacity="0" offset="1"/></linearGradient><linearGradient id="d" x1="1459.9" x2="1462.9" y1="-808.34" y2="-810.66" gradientTransform="matrix(-2.732 0 0 2.732 4027.2 2244.5)" gradientUnits="userSpaceOnUse"><stop stop-color="#CAEFB9" offset="0"/><stop stop-color="#CAEFB9" stop-opacity="0" offset="1"/></linearGradient><linearGradient id="e" x1="1462.3" x2="1464.5" y1="-805.88" y2="-808.6" gradientTransform="matrix(-2.732 0 0 2.732 4027.2 2244.5)" gradientUnits="userSpaceOnUse"><stop stop-color="#B1E3DA" offset="0"/><stop stop-color="#B1E3DA" stop-opacity="0" offset="1"/></linearGradient><linearGradient id="f" x1="1463.3" x2="1462.4" y1="-803.87" y2="-801.14" gradientTransform="matrix(-2.732 0 0 2.732 4027.2 2244.5)" gradientUnits="userSpaceOnUse"><stop stop-color="#A5C5EE" offset="0"/><stop stop-color="#A5C5EE" stop-opacity="0" offset="1"/></linearGradient><linearGradient id="j" x1="-182.7" x2="-184.42" y1="208.08" y2="285.53" gradientTransform="matrix(.33353 0 0 .14195 91.099 249.62)" gradientUnits="userSpaceOnUse"><stop stop-color="#fff" offset="0"/><stop stop-color="#c3c3c3" offset="1"/></linearGradient><linearGradient id="h" x1="-32.568" x2="-33.595" y1="-263.25" y2="-90.552" gradientTransform="translate(36.555 308.13) scale(.19258)" gradientUnits="userSpaceOnUse"><stop stop-color="#545454" offset="0"/><stop stop-color="#2a2a2a" offset="1"/></linearGradient><linearGradient id="i" x1="-256.93" x2="-256.24" y1="-66.48" y2="1.3" gradientTransform="translate(78.792 273.91) scale(.19258)" gradientUnits="userSpaceOnUse"><stop stop-color="#fcd287" offset="0"/><stop stop-color="#af8a4f" offset="1"/></linearGradient><filter id="a" x="-.147" y="-.166" width="1.295" height="1.331" color-interpolation-filters="sRGB"><feGaussianBlur stdDeviation="3.362"/></filter><filter id="g" x="-.041" y="-.032" width="1.082" height="1.064" color-interpolation-filters="sRGB"><feGaussianBlur stdDeviation=".447"/></filter><radialGradient id="k" cx="-179.96" cy="216.52" r="30.5" gradientTransform="matrix(.33353 0 0 .08877 91.102 262.59)" gradientUnits="userSpaceOnUse"><stop stop-color="#578fe0" offset="0"/><stop stop-color="#5082cd" offset="1"/></radialGradient></defs><g stroke-width="2.1"><g transform="translate(-6.101 -120.21) scale(.46875)"><path d="M19.501 258.11c-.862 0-1.556.694-1.556 1.556v30.226c0 .862.694 1.556 1.556 1.556h23.154c.862 0 1.556-.694 1.556-1.556v-28.104l-3.484-3.678z" filter="url(#g)" opacity=".25"/><path d="M19.501 257.58c-.862 0-1.556.694-1.556 1.556v30.226c0 .862.694 1.556 1.556 1.556h23.154c.862 0 1.556-.694 1.556-1.556v-28.104l-3.484-3.678z" fill="url(#h)"/><rect x="20.516" y="261.66" width="21.124" height="12.947" ry="2.034" fill="gray" opacity=".3"/><rect x="20.516" y="261.25" width="21.124" height="12.947" ry="2.034" fill="url(#i)" stroke="#333" stroke-linecap="round" stroke-linejoin="round" stroke-width=".607"/></g><g fill="none" opacity=".6" stroke="#000" stroke-linecap="round" stroke-linejoin="round"><path d="M3.666 6.028a4.187 4.187 0 0 1 3.48-.545c.272.08.534.187.794.296.9.377 1.81.785 2.782.864a4.287 4.287 0 0 0 1.854-.26" stroke-width=".189567"/><path d="M3.65 5.291a4.401 4.401 0 0 1 2.988-.611c.558.087 1.093.282 1.618.493.812.326 1.627.696 2.5.769a3.829 3.829 0 0 0 2.527-.699" stroke-width=".189567"/><path d="M4.425 4.177a3.527 3.527 0 0 1 1.687-.335c.713.037 1.397.29 2.054.569.695.296 1.387.628 2.133.753a4.013 4.013 0 0 0 2.183-.248M4.412 2.372v1.775M5.34 2.372v1.507M6.253 2.372V3.85M7.14 2.372V4.03M8.03 2.372v1.973M8.927 2.372v2.361M9.784 2.372v2.68M10.712 2.372v2.83M11.597 2.372v2.786M12.482 2.372v2.544M4.456 5.609V7.42M5.349 5.362v2.845M6.263 5.33v2.877M7.12 5.47v2.737M8.016 5.816v2.391M8.904 6.184v2.023M9.822 6.49v1.717M10.711 6.65v1.557M11.61 6.626v1.581M12.577 6.384v1.823" stroke-width=".189567"/></g><g fill-rule="evenodd" transform="translate(-6.101 -120.21) scale(.46875)"><rect x="20.368" y="278.57" width="21.42" height="12.209" ry=".496" fill="#1a1a1a"/><rect x="20.905" y="279.13" width="20.345" height="11.356" ry=".462" fill="url(#j)"/><path d="M21.411 279.13c-.6 0-.503.43-.503.991v4.401h20.345v-4.4c0-.562.037-.992-.564-.992z" fill="url(#k)"/><path d="m30.707 280.81.811 1.995-1.666-.001z" fill="#fff"/></g></g></svg>
